!!!!SEGMENT: pl-wnifc--6670-n--001-008_gall-jan-karol--piesni-polskie-na-chor-meski-z-i-8-wisi-na-krzyzu.krn
!!!cenid: 19xx:176
!!!COM: Gall, Jan Karol
!!!COM-rismID: pe50042628
!!!CDT: 1856-1912
!!!CNT: Polish
!!!GTL: Pieśni polskie na chór męski (z. I)
!!!OTL: 8. Wisi na krzyżu
!!!OMV: 008
!!!PDT:
!!!AGN:
!!!YEC: Copyright 2022 Narodowy Instytut Fryderyka Chopina (https://polishscores.org)
!!!YEM: License CC-BY-4.0 (https://creativecommons.org/licenses/by/4.0)
!!!SMS-siglum: PL-Wnifc
!!!SMS-shelfmark: 6670/n
!!!SMS-variant:
!!!SMS-altvar:
!!!SMS-shelfwork: 001-008 G
!!!NIFC-rismSourceID: 1001152877
!!!NIFC-rismChildID: 1001152892
!!!NIFC-islandoraID: nifc:213182
!!!URL-pdf-islandora: https://repozytorium.nifc.pl/islandora/object/nifc:213182/datastream/PDF/view
!!!URL-scan: https://polish.musicsources.pl/pl/lokalizacje/galeria/druki-muzyczne/16895/6 @EN{Scan on Polish Music Sources Website} @PL{Skany w portalu Dziedzictwo Muzyki Polskiej w otwartym dostępie}
!!!IIIF:
!!!ONB-nifc:
!!!AIN: 1 bass 1 tenor
!!!key: c
**kern	**dynam	**kern	**text	**text	**dynam
*part2	*part2	*part1	*part1	*part1	*part1
*staff2	*	*staff1	*staff1	*staff1	*
*ICvox	*	*ICvox	*	*	*
*Ibass	*	*Itenor	*	*	*
*I"Basy.	*	*I"Tenory.	*	*	*
*I'B	*	*I'T	*	*	*
*clefF4	*	*clefG2	*	*	*
*k[b-e-a-]	*	*k[b-e-a-]	*	*	*
*c:	*	*c:	*	*	*
*M4/4	*	*M4/4	*	*	*
*met(c)	*	*met(c)	*	*	*
=1	=1	=1	=1	=1	=1
!!!OMD: Lento.
*^	*	*^	*	*	*
*	*	*	*	*	*v:1	*v:2	*
!	!	!LO:DY:rj	!	!	!	!	!LO:DY:a:rj
2C/	2C\	p	2ee-/	2g\	Wi-	Naj-	p
8C/L	4GG\	.	4dd/	4g\	-si	-swięt-	.
8BBn/J	.	.	.	.	.	.	.
4C/	4EE-\	.	4cc/	4g\	na	-sze	.
=2	=2	=2	=2	=2	=2	=2	=2
2C/	2FF\	.	2dd/	2a-\	Krzy-	człon-	.
2BBn/	2GG\	.	2dd/	2g\	-żu	-ki	.
=3	=3	=3	=3	=3	=3	=3	=3
(4C/	(4C\	.	(4ee-/	2g\	Pan	i	.
8C/L)	4GG\)	.	4dd/)	.	.	.	.
8BBn/J	.	.	.	.	.	.	.
4C/	4EE-\	.	4cc/	4g\	Stwór-	wszyst-	.
8D/L	4GG\	.	4bn/	4g\	-ca	-ko	.
8F/J	.	.	.	.	.	.	.
!!LO:LB:g=original
=4	=4	=4	=4	=4	=4	=4	=4
2F/	2C\	.	2cc/	2g\	nie-	cia-	.
2E-/	2C\	.	2cc/	2g\	-ba	-ło	.
=5	=5	=5	=5	=5	=5	=5	=5
2E-/	2C\	.	2ee-/	2g\	Pła-	zbi-	.
!	!	!	!	!	!	!	!LO:DY:a
8C/L	4GG\	<	4dd/	4g\	-kać	-te	<
8BBn/J	.	.	.	.	.	.	.
4C/	4EE-\	[	4cc/	4g\	za	o-	[
=6	=6	=6	=6	=6	=6	=6	=6
2C/	2FF\	.	2dd/	2a-\	grze-	-kru-	.
!LO:N:vis=2	!LO:N:vis=2	!	!LO:N:vis=2	!LO:N:vis=2	!	!	!
4BBn/	4GG\	.	4dd/	4g\	-chy	-tnie	.
*cue	*cue	*	*cue	*cue	*	*	*
!LO:TX:t=P:problem:nawias wysoki obejmujący obydwie nuty	!	!	!LO:TX:t=P:problem:nawias wysoki obejmujący obydwie nuty	!	!	!	!
!LO:N:n=1:paren	!LO:N:n=1:paren	!	!LO:N:n=1:paren	!LO:N:n=1:paren	!	!	!
4BB/	4GG\	.	4dd/	4g\	.	na	.
*Xcue	*Xcue	*	*Xcue	*Xcue	*	*	*
=7	=7	=7	=7	=7	=7	=7	=7
(4C/	(4C\	.	(4ee-/	2g\	czło-	Krzy-	.
8C/L)	4GG\)	.	4dd/)	.	.	.	.
8BBn/J	.	.	.	.	.	.	.
4C/	4EE-\	.	4cc/	4g\	-wie-	-żu	.
8D/L	4GG\	.	4bn/	4g\	-cze	wi-	.
8F/J	.	.	.	.	.	.	.
!!LO:LB:g=original
=8	=8	=8	=8	=8	=8	=8	=8
2F/	2C\	.	2cc/	2g\	trze-	-sia-	.
2E-/	2C\	.	2cc/	2g\	-ba	-ło	.
=9	=9	=9	=9	=9	=9	=9	=9
1E-	1C	.	1gg	1cc	Ach!	Ach!	.
=10	=10	=10	=10	=10	=10	=10	=10
!	!	!LO:DY:rj	!	!	!	!	!LO:DY:a:rj
2.A-/	2.C\	p	2.ff/	2.dd\	Ach!	Ach!	p
8r	8ryy	.	8r	8ryy	.	.	.
8A-/	8C\	.	8ff/	8dd\	Na	.	.
=11	=11	=11	=11	=11	=11	=11	=11
!	!	!	!	!	!	!	!LO:DY:a
(4G/	(4C\	<	(4ee-/	(4cc\	Krzy-	To-	<
4D/)	4GG\)	.	4dd/)	4g\)	.	-bie	.
4C/	4EE-\	[	4cc/	4g\	-żu	to	[
4D/	4GG\	.	4dd/	4g\	u-	czło-	.
!!LO:LB:g=original
=12	=12	=12	=12	=12	=12	=12	=12
!	!	!	!	!	!	!	!LO:DY:a
(2C/	(2C\	>	(2ee-/	(2g\	-mie-	-wie-	>
4C/)	4FF\)	.	4dd/)	4a-\)	.	.	.
8BBn/	8GG\	]	8dd/	8g\	-ra	-cze	]
8r;	8ryy	.	8r	8ryy	.	.	.
=13	=13	=13	=13	=13	=13	=13	=13
!	!	!LO:DY:rj	!	!	!	!	!LO:DY:a:rj
1E-	1C	p >	1gg	1cc	Je-	z bo-	p >
=14	=14	=14	=14	=14	=14	=14	=14
1A-	1C	]]	1ff	1dd	-zus	-ku	]]
=15	=15	=15	=15	=15	=15	=15	=15
!	!	!LO:DY:rj	!	!	!	!	!LO:DY:a:rj
4G/	4C\	pp	4ee-/	4cc\	o-	krew	pp
4D/	4GG\	.	4dd/	4g\	-czy	Je-	.
4C/	4EE-\	.	4cc/	4g\	swe	-zu-	.
8D/L	4GG\	.	4bn/	4g\	za-	-sa	.
8F/J	.	.	.	.	.	.	.
=16	=16	=16	=16	=16	=16	=16	=16
2F/	2C\	.	2cc/	2g\	-wie-	cie-	.
2E-;/	2C;\	.	2cc;/	2g;\	-ra.	-cze.	.
*v	*v	*	*	*	*	*	*
*	*	*v	*v	*	*	*
==	==	==	==	==	==
*-	*-	*-	*-	*-	*-
!!!system-decoration: [(s1,s2)]
!!!ENC: Andrzej Gręziak
!!!END: 2024-05-02
!!!EED: Andrzej Borzym
!!!EEV: 2025-03-06
